X:16147
T:Swallow's Nest
R:Jig
S:(Seamus Egan)
H:
N:
D:
Z:Adrian Scahill
M:6/8
L:1/8
K:D
d3 e2_e|dAG FED|F2d AFD|E3 GFE|\
DFA dAF|EGB efg|f3 gec|edc d3:||
a3 fdf|g3 ece|fef g3|ecA GFE|\
DFA dAF|EGB efg|f3 gec|edc d3:||
